icons/bitrise.svg

<?xml version="1.0" encoding="UTF-8"?>
<svg width="512px" height="148px" viewBox="0 0 512 148" version="1.1" xmlns="http://www.w3.org/2000/svg" xmlns:xlink="http://www.w3.org/1999/xlink" preserveAspectRatio="xMidYMid">
		<g fill="#683D87">
				<path d="M88.2183451,25.3167999 L93.40984,25.3206399 C115.880871,25.3876582 133.02235,26.0989274 143.932851,26.7610439 L145.148814,26.8362243 C156.688391,27.5518569 166.259977,35.6027242 168.943599,46.8739384 L169.347135,48.595488 C171.498798,57.8325458 174.311866,70.8548141 176.246038,83.8815512 L176.625561,86.4566736 C177.939526,95.5666122 179.016671,106.236208 179.856997,118.168841 C180.304267,125.235713 177.978461,132.034224 173.237396,137.312014 C168.496329,142.589806 161.966181,145.631244 154.899308,145.98906 L150.391968,146.190515 C135.145128,146.852158 113.732992,147.577875 90.9611526,147.598771 L86.9445101,147.595118 C64.9240961,147.535241 44.3177265,146.832697 29.5193244,146.190515 L25.011983,145.98906 C17.8556565,145.720698 11.4149627,142.589806 6.67389644,137.312014 C1.93283014,132.034224 -0.392975964,125.235713 0.0542944412,118.168841 L0.224161102,115.804969 C1.02706389,104.856933 1.97550428,95.0774799 3.18933676,86.5265345 L3.45354952,84.7130147 C5.51099338,70.5792699 8.64188622,56.356071 10.8782382,46.8739384 C13.5330045,35.7239201 22.9284032,27.6378255 34.3880675,26.8590245 L38.1247056,26.6349107 C49.3761898,25.9946244 66.3415968,25.3494641 88.2183451,25.3167999 L88.2183451,25.3167999 Z M91.7577248,37.572009 L88.326521,37.572009 C64.409031,37.6081115 46.4892838,38.3924433 35.5675646,39.0914334 C29.395233,39.5387038 24.3858045,43.7430456 22.9545392,49.736469 L22.4033188,52.0346117 C20.238427,61.1675555 17.5193093,73.9105399 15.7087586,86.5020963 L15.4445677,88.2495302 C14.1443605,97.0856323 13.1537264,107.400806 12.3989576,118.973928 C12.1305954,122.730999 13.3829525,126.309162 15.8876668,129.082239 C18.3923811,131.855315 21.7916362,133.465488 25.5487076,133.644397 L31.4604401,133.907899 C46.4853955,134.55193 67.0441157,135.233587 88.9439474,135.254096 L92.984936,135.250346 C117.147396,135.183293 139.50605,134.331405 154.362585,133.644397 C158.119655,133.465488 161.518911,131.855315 164.023625,129.082239 C166.438885,126.309162 167.691243,122.730999 167.691243,118.973928 L167.521397,116.676141 C166.661472,105.271729 165.639389,95.140006 164.381441,86.5020963 C162.323997,72.815622 159.282559,58.9502394 157.135661,49.736469 C155.704396,43.7430456 150.605513,39.4492497 144.522635,39.0914334 L141.21048,38.8901198 C130.118468,38.2498335 113.325532,37.6046732 91.7577248,37.572009 L91.7577248,37.572009 Z M109.903905,98.8467595 C109.903905,109.849612 100.958498,118.795019 89.9556458,118.795019 C78.9742629,118.795019 70.0970545,109.939951 69.9206086,99.1735907 L69.9179317,98.8467595 L109.903905,98.8467595 Z M45.2286053,74.067979 C52.0222139,74.067979 57.4235014,79.4632234 57.5702069,86.1339674 L57.5732686,86.4126423 L32.8839422,86.4126423 C32.8839422,79.6141321 38.4300952,74.067979 45.2286053,74.067979 Z M134.682686,74.067979 C141.476295,74.067979 146.877582,79.4632234 147.024288,86.1339674 L147.02735,86.4126423 L122.338023,86.4126423 C122.338023,79.6141321 127.884176,74.067979 134.682686,74.067979 Z M89.9556458,0 C94.2494417,0 97.6486968,3.48870915 97.6486968,7.69305096 C97.6486968,11.8973928 94.1599876,15.2966479 89.9556458,15.2966479 C85.751304,15.2966479 82.2625949,11.8079387 82.2625949,7.69305096 C82.2625949,3.39925508 85.751304,0 89.9556458,0 Z"></path>
				<path d="M325.935511,53.5829945 L325.935511,69.6847291 L336.312184,69.6847291 L336.312184,82.1188463 L326.024966,82.1188463 L326.024966,102.335468 C326.024966,105.376908 328.619134,107.971076 332.197297,108.149984 C334.664062,108.149984 336.464478,107.483637 337.117299,107.200945 L337.385634,107.076535 L337.385634,118.973928 L337.003405,119.104004 C335.869495,119.472116 332.336845,120.494647 328.082409,120.494647 C317.817313,120.494647 312.104332,114.892044 311.98266,103.25384 L311.980674,102.872193 L311.980674,82.1188463 L303.214175,82.1188463 L303.214175,69.595275 L307.776333,69.595275 C310.841999,69.595275 313.393071,67.1080711 313.498035,63.1414096 L313.501394,62.8862189 L313.501394,53.5829945 L325.935511,53.5829945 Z M229.146196,46.8739384 L229.146196,74.8730658 L229.348693,74.6107812 C230.392857,73.3115262 235.459098,67.6272853 244.174481,67.6272853 C257.055869,67.6272853 268.505991,78.9879535 268.505991,94.0162391 C268.505991,109.044525 257.145323,120.405193 244.174481,120.405193 C234.756245,120.405193 229.599455,113.767171 229.174743,113.198198 L229.146196,113.159413 L229.146196,119.421198 L215.191359,119.421198 L215.191359,46.8739384 L229.146196,46.8739384 Z M433.727679,67.5378312 C444.156258,67.5378312 449.842462,73.5173477 451.087514,74.9937715 L451.350133,75.3203362 L444.104353,83.6395657 L444.011499,83.5243489 C443.457599,82.857737 440.454626,79.524678 435.785123,79.524678 C431.670235,79.524678 429.612791,81.5821219 429.612791,83.6395657 C429.612791,90.8853463 452.960307,87.307183 452.960307,104.303459 C452.960307,113.159413 445.714526,120.405193 432.743685,120.405193 C419.544029,120.405193 413.235301,112.781188 412.15843,111.336639 L411.990338,111.101968 L419.772843,103.319463 L419.901497,103.485045 C420.653866,104.424675 424.659461,109.044525 430.68624,109.044525 C435.337853,109.044525 437.395296,106.987081 437.395296,104.392913 C437.395296,96.6104075 414.047781,100.456933 414.047781,83.6395657 C414.047781,75.8570606 422.367011,67.5378312 433.727679,67.5378312 Z M486.595041,67.5378312 C501.086602,67.5378312 512,78.451229 512,92.9427902 L511.994925,93.5556679 C511.941781,96.7393361 511.486981,98.555666 511.382561,98.6628231 L511.373821,98.6678513 L474.608194,98.6678513 C475.681643,103.856188 480.333255,108.5078 488.11576,108.5078 C496.426733,108.5078 501.034899,102.992983 501.570584,102.314236 L501.623327,102.246014 L508.869107,111.549239 L508.589303,111.843561 C507.08413,113.37008 499.553104,120.315739 487.131765,120.315739 C472.10348,120.315739 460.206087,108.418346 460.206087,93.926785 C460.206087,79.435224 472.10348,67.5378312 486.595041,67.5378312 Z M377.416987,68.2500399 L377.818878,68.2534638 L379.876323,68.2534638 L379.876323,82.2083004 L379.715344,82.1587688 C379.249445,82.025898 377.768561,81.671576 375.22471,81.671576 C368.07554,81.671576 363.451822,86.2870566 363.329793,94.8306307 L363.327318,95.1791422 L363.327318,119.510652 L349.372481,119.510652 L349.372481,68.7007342 L363.327318,68.7007342 L363.327318,74.8730658 L363.447866,74.7236134 C364.249065,73.7588507 369.019336,68.4440692 377.0203,68.2551575 L377.416987,68.2500399 Z M293.284772,68.6112801 L293.284772,119.421198 L279.329936,119.421198 L279.329936,68.6112801 L293.284772,68.6112801 Z M402.150388,68.6112801 L402.150388,119.421198 L388.195552,119.421198 L388.195552,68.6112801 L402.150388,68.6112801 Z M241.580313,80.0614025 C234.871257,80.0614025 229.146196,85.6970096 229.146196,94.0162391 C229.146196,102.246014 234.871257,107.971076 241.580313,107.971076 C248.289369,107.971076 254.014431,102.335468 254.014431,94.0162391 C254.014431,85.6970096 248.289369,80.0614025 241.580313,80.0614025 Z M486.595041,79.524678 C480.530996,79.524678 476.366494,83.4964502 474.78016,88.5558397 L474.697648,88.8279024 L497.95571,88.8279024 C496.971715,83.6395657 492.767373,79.524678 486.595041,79.524678 Z M286.128446,46.3372139 C291.316782,46.3372139 294.447675,49.4681068 294.447675,54.119719 C294.447675,58.7713312 291.316782,61.902224 286.128446,61.902224 C281.476833,61.902224 278.345941,58.7713312 278.345941,54.119719 C278.345941,49.4681068 281.476833,46.3372139 286.128446,46.3372139 Z M394.904608,46.3372139 C400.092945,46.3372139 403.223838,49.4681068 403.223838,54.119719 C403.223838,58.7713312 400.092945,61.902224 394.904608,61.902224 C390.252996,61.902224 387.122103,58.7713312 387.122103,54.119719 C387.122103,49.4681068 390.252996,46.3372139 394.904608,46.3372139 Z"></path>
		</g>
</svg>

<svg xmlns="http://www.w3.org/2000/svg" viewBox="0 0 512 147.599">
  <g fill="#683d87">
    <path d="m88.218 25.317 5.192.004c22.47.067 39.612.778 50.523 1.44l1.216.075c11.54.716 21.111 8.767 23.795 20.038l.403 1.721c2.152 9.238 4.965 22.26 6.899 35.287l.38 2.575c1.314 9.11 2.39 19.78 3.231 31.712.447 7.067-1.879 13.865-6.62 19.143-4.74 5.278-11.27 8.32-18.338 8.677l-4.507.201c-15.247.662-36.659 1.388-59.43 1.409l-4.017-.004c-22.02-.06-42.627-.763-57.426-1.405l-4.507-.201c-7.156-.268-13.597-3.4-18.338-8.677-4.741-5.278-7.067-12.076-6.62-19.143l.17-2.364c.803-10.948 1.752-20.728 2.965-29.278l.265-1.814c2.057-14.134 5.188-28.357 7.424-37.84 2.655-11.15 12.05-19.235 23.51-20.014l3.737-.224c11.251-.64 28.217-1.286 50.093-1.318zm3.54 12.255h-3.431c-23.918.036-41.838.82-52.76 1.52-6.172.447-11.181 4.651-12.612 10.644l-.552 2.299c-2.165 9.133-4.884 21.876-6.694 34.467l-.264 1.748c-1.3 8.836-2.291 19.15-3.046 30.724-.268 3.757.984 7.335 3.489 10.108 2.504 2.773 5.904 4.383 9.66 4.562l5.912.264c15.025.644 35.584 1.326 57.484 1.346l4.04-.004c24.163-.067 46.522-.919 61.379-1.606 3.757-.179 7.156-1.789 9.66-4.562 2.416-2.773 3.668-6.351 3.668-10.108l-.17-2.298c-.86-11.404-1.882-21.536-3.14-30.174-2.057-13.686-5.098-27.552-7.245-36.766-1.432-5.993-6.53-10.287-12.613-10.645l-3.313-.2c-11.092-.641-27.884-1.286-49.452-1.319zm18.146 61.275c0 11.003-8.946 19.948-19.948 19.948-10.982 0-19.859-8.855-20.035-19.621l-.003-.327zM45.229 74.068A12.31 12.31 0 0 1 57.57 86.134l.003.279h-24.69c0-6.799 5.547-12.345 12.346-12.345zm89.454 0a12.31 12.31 0 0 1 12.341 12.066l.003.279h-24.689c0-6.799 5.546-12.345 12.345-12.345zM89.956 0c4.293 0 7.693 3.489 7.693 7.693s-3.489 7.604-7.693 7.604c-4.205 0-7.693-3.49-7.693-7.604C82.263 3.4 85.75 0 89.956 0zM325.936 53.583v16.102h10.376v12.434h-10.287v20.216c0 3.042 2.594 5.636 6.172 5.815 2.467 0 4.267-.666 4.92-.95l.269-.123v11.897l-.383.13c-1.134.368-4.666 1.39-8.92 1.39-10.266 0-15.979-5.602-16.1-17.24l-.002-.382V82.12h-8.767V69.595h4.562c3.066 0 5.617-2.487 5.722-6.454l.003-.255v-9.303zm-96.79-6.71v28l.203-.262c1.044-1.3 6.11-6.984 14.825-6.984 12.882 0 24.332 11.361 24.332 26.39 0 15.028-11.36 26.388-24.332 26.388-9.418 0-14.575-6.638-15-7.207l-.028-.039v6.262h-13.955V46.874zm204.582 20.665c10.428 0 16.114 5.98 17.36 7.456l.262.326-7.246 8.32-.092-.116c-.554-.666-3.557-4-8.227-4-4.115 0-6.172 2.058-6.172 4.116 0 7.245 23.347 3.667 23.347 20.663 0 8.856-7.245 16.102-20.216 16.102-13.2 0-19.509-7.624-20.586-9.068l-.168-.235 7.783-7.783.129.166c.752.94 4.758 5.56 10.784 5.56 4.652 0 6.71-2.058 6.71-4.652 0-7.783-23.348-3.936-23.348-20.753 0-7.783 8.32-16.102 19.68-16.102zm52.867 0C501.087 67.538 512 78.45 512 92.943l-.005.613c-.053 3.183-.508 5-.612 5.107l-.01.005h-36.765c1.073 5.188 5.725 9.84 13.508 9.84 8.31 0 12.919-5.515 13.454-6.194l.053-.068 7.246 9.303-.28.295c-1.505 1.526-9.036 8.472-21.457 8.472-15.029 0-26.926-11.898-26.926-26.39 0-14.49 11.897-26.388 26.389-26.388zm-109.178.712.402.003h2.057v13.955l-.16-.05c-.467-.132-1.947-.486-4.491-.486-7.15 0-11.773 4.615-11.895 13.159l-.002.348v24.332h-13.956V68.7h13.955v6.172l.12-.15c.802-.964 5.572-6.279 13.573-6.468zm-84.132.361v50.81H279.33v-50.81zm108.865 0v50.81h-13.954v-50.81zm-160.57 11.45c-6.709 0-12.434 5.636-12.434 13.955 0 8.23 5.725 13.955 12.434 13.955 6.71 0 12.434-5.636 12.434-13.955 0-8.319-5.725-13.955-12.434-13.955zm245.015-.536c-6.064 0-10.229 3.971-11.815 9.03l-.082.273h23.258c-.984-5.188-5.189-9.303-11.361-9.303zM286.128 46.337c5.189 0 8.32 3.131 8.32 7.783 0 4.651-3.131 7.782-8.32 7.782-4.651 0-7.782-3.13-7.782-7.782s3.13-7.783 7.782-7.783zm108.777 0c5.188 0 8.319 3.131 8.319 7.783 0 4.651-3.131 7.782-8.32 7.782-4.651 0-7.782-3.13-7.782-7.782s3.131-7.783 7.783-7.783z"/>
  </g>
</svg>
